X:1
T:Pange lingua
T:Marc-Antoine Charpentier (H.62)
T:arr. Jeffrey Quick
T:Pange lingua
T:Pour des Religieuses pour le Port Royal
T:©2015
T:©2015
C:Marc-Antoine Charpentier
Z:©2015
%%score 1 { ( 2 4 ) | 3 }
L:1/8
Q:1/2=60
M:2/2
K:Gmin
V:1 treble nm="Voice"
V:2 treble nm="Basse continue" snm="B.c."
V:4 treble 
V:3 bass 
V:1
"^In slow 2. []""^Solo" B3 G | d2 d2 c3 d | PB2 A2 B3 c | (dc) (B/A/B) PB3 A | A4 d3 c | %5
w: 1. Pan- ge|lin- gua glo- ri-|o- si Cor- po-|ris _ mys- * * te- ri-|um, San- gui-|
w: 3. In su-|pre- mae no- cte|coe- nae Re- cum-|bens _ cum _ _ fra- tri-|bus, Ob- ser-|
w: 5. Tan- tum|er- go Sa- cra-|men- tum Ve- ne-|re- * mur _ _ cer- nu-|i: Et an-|
 =B2 G2 c3 _B | A2 F2 B2 B2 | c2 (d/c/d) Pd3 c | c4 d2 e2 | f2 d2 (ed) (ec) | d2 B2 c3 d | %11
w: nis- que pre- ti-|o- si, Quem in|mun- di _ _ pre- ti-|um, Fruc- tus|ven- tris ge- * ne- *|ro- si, Rex ef-|
w: va- ta le- ge|ple- ne Ci- bis|in le- * * ga- li-|bus, Ci- bum|tur- bae du- * o- *|de- nae Se dat|
w: ti- quum do- cu-|men- tum No- vo|ce- dat _ _ ri- tu-|i: Prae- stet|fi- des sup- * ple- *|men- tum Sen- su-|
 (ed) (cB) A3 G | G4 |"^Chorus" B2 c2 | A2 B2 (G^F) (GA) | ^F2 F2 G2 A2 | (BA) (cB) A3 G | %17
w: fu- * dit _ gen- ti-|um|2. No- bis|da- tus, no- * bis _|na- tus Ex in-|tac- * ta _ Vir- gi-|
w: su- * is _ ma- ni-|bus.|4. Ver- bum|ca- ro, pa- * nem _|ve- rum Ver- bo|car- * nem _ ef- fi-|
w: um _ de- * fe- ctu-|i,|6. Ge- ni-|to- ri, Ge- * ni- *|to- que, Laus et|ju- * bi- * la- ti-|
 G4 D3 =E | F2 F2 G2 (AB) | A2 F2 B3 F | (GA) B2 PB3 A | B4 A3 =B | c2 c2 (dc) (d=B) | c2 c2 A3 A | %24
w: ne Et in|mun- do con- * ser-|va- tus, Spar- so|ver- * bi se- mi-|ne, Su- i|mo- ras in- * co- *|la- tus Mi- ro|
w: cit: Fit- que|San- guis Chri- sti _|me- rum, Et si|sen- * sus de- fi-|cit, Ad mir-|man- dum cor _ sin- *|ce- rum So- la|
w: o, Sa- lus,|ho- nor, vir- tus _|quo- que Sit et|be- * ne- di- cti-|o: Pro- ce-|den- ti ab _ u- *|tro- que Com- par|
 d2 G2 PG3 ^F | G4 :| B4- | B6 A2 | (B4 A4) | G8 |] %30
w: clau- sit or- di-|ne|||||
w: fi- des suf- fi-|cit.|||||
w: sit lau- da- ti-|o,|A-|* men.|A- *|men.|
V:2
 [B,D]4 | [A,D]6 [A,^F]2 | [B,G]2 [A,^F]2 [B,G]3 [C=F] | [DF]2 [D^F]2 [B,DG]4 | [A,D^F]6 [A,DF]2 | %5
 [=B,DG]4 [C=EG]4 | [A,CF]4 [B,DF]2 [B,EG]2 | [CEG]2 [A,DF]2 [B,DF]4 | [A,CF]4 [B,DF]2 [B,EG]2 | %9
 [DFA]2 [DGB]2 [B,EG]2 [A,CF]2 | [B,DF]4 [CG]3 [DF] | [CEG]2 [CEG]2 [A,D^F]4 | [B,DG]4 | %13
 [DGB]2 [EGc]2 | [CFA]2 [DFB]2 [B,EG]2 [CEG]2 | [A,D^F]4 [DG]2 [CA]2 | [DB]2 [EG]2 [D^F]4 | %17
 [B,DG]4 [B,D]4 | [CF]2 [DF]2 [B,G]2 [CE]2 | [A,F]4 [B,F]4 | [B,G]2 [B,F]2 [B,C]3 [A,C] | %21
 [B,D]4 [CA]4 | [CG]4 [CF]2 [=B,D]2 | [CE]4 [A,F]4 | [B,DF]2 [CE]2 G3 ^F | [B,DG]4 :| ([DGB]4 | %27
 B6) A2 | [DGB]4 [D^FA]4 | [B,DG]8 |] %30
V:3
 G,4 | ^F,6 D,2 | G,2 D,2 G,,3 A,, | B,,2 D,2 G,,4 | D,3 =E, ^F,2 D,2 | G,3 F, =E,2 C,2 | %6
 F,3 E, D,2 E,2 | C,2 F,2 B,,4 | F,6"^6\n4" E,2 | D,2 G,2 E,2 F,2 | B,,4"^6" E,3 D, | C,2 C,2 D,4 | %12
 G,,4 | G,2 E,2 | F,2 D,2 E,2 C,2 | D,2 C,2 B,,2 A,,2 | G,,2 C,2 D,4 | G,,2 A,,2 B,,4 | %18
 A,,2 B,,2 G,,2 C,2 | F,,2 F,C, D,4 | E,2 D,E, F,2 F,,2 | B,,4 F,4 | E,4"^7" D,2 G,2 | C,4 F,4 | %24
 B,,2 C,2 D,4 | G,,4 :| G,4 | C,8 | D,4 D,,4 | G,,8 |] %30
V:4
 x4 | x8 | x8 | x8 | x8 | x8 | x8 | x8 | x8 | x8 | x8 | x8 | x4 | x4 | x8 | x8 | x8 | x8 | x8 | %19
 x8 | x8 | x8 | x8 | x8 | x4 [A,D]4 | x4 :| x4 | [CE]8 | x8 | x8 |] %30

